icons/sigma.svg

<svg width="24" height="24" viewBox="0 0 24 24" fill="none" xmlns="http://www.w3.org/2000/svg">
<path fill-rule="evenodd" clip-rule="evenodd" d="M4.06212 4.65305C4.20731 4.26057 4.58153 4 5 4H19C19.5523 4 20 4.44772 20 5V8C20 8.55228 19.5523 9 19 9C18.4477 9 18 8.55228 18 8V6H7.70326L13.8175 11.2407C14.0391 11.4307 14.1667 11.7081 14.1667 12C14.1667 12.2919 14.0391 12.5693 13.8175 12.7593L7.70326 18H18V16C18 15.4477 18.4477 15 19 15C19.5523 15 20 15.4477 20 16V19C20 19.5523 19.5523 20 19 20H5C4.58153 20 4.20731 19.7394 4.06212 19.3469C3.91693 18.9545 4.03148 18.5131 4.34921 18.2407L11.6301 12L4.34921 5.75926C4.03148 5.48692 3.91693 5.04554 4.06212 4.65305Z" fill="black"/>
</svg>

<svg
  width="24"
  height="24"
  viewBox="0 0 24 24"
  xmlns="http://www.w3.org/2000/svg"
>
  <path
    fill-rule="evenodd"
    clip-rule="evenodd"
    d="M4.062 4.653A1 1 0 0 1 5 4h14a1 1 0 0 1 1 1v3a1 1 0 1 1-2 0V6H7.703l6.115 5.24a1 1 0 0 1 0 1.52L7.703 18H18v-2a1 1 0 1 1 2 0v3a1 1 0 0 1-1 1H5a1 1 0 0 1-.65-1.76L11.63 12 4.35 5.76a1 1 0 0 1-.288-1.107z"
  />
</svg>
